!!!COM: Bach, Johann Sebastian
!!!CDT: 1685/3//-1750/7/28/
!!!OTL@@DE: Ich dank' dir, lieber Herre
!!!AGN: 4-Part Chorale
!!!SCT: BH 272
!!!SCT: BWV 348
**harm	**root	**kern	**kern	**kern	**kern
!	!	!bass	!tenor	!alto	!soprno
*	*Iorgan	*Iorgan	*Iorgan	*Iorgan	*Iorgan
*M4/4	*M4/4	*M4/4	*M4/4	*M4/4	*M4/4
*met(c)	*met(c)	*met(c)	*met(c)	*met(c)	*met(c)
*MM60	*MM60	*MM60	*MM60	*MM60	*MM60
*k[b-e-a-d-g-c-]	*k[b-e-a-d-g-c-]	*k[b-e-a-d-g-c-]	*k[b-e-a-d-g-c-]	*k[b-e-a-d-g-c-]	*k[b-e-a-d-g-c-]
*G-:	*G-:	*G-:	*G-:	*G-:	*G-:
*>[A,B,B1,B,B2]	*>[A,B,B1,B,B2]	*>[A,B,B1,B,B2]	*>[A,B,B1,B,B2]	*>[A,B,B1,B,B2]	*>[A,B,B1,B,B2]
*>A	*>A	*>A	*>A	*>A	*>A
I	4BB-	8G-	4B-	4d-	4g-
.	.	8F	.	.	.
=1	=1	=1	=1	=1	=1
vi	4GG	4E-	8B-	4e-	4g-
.	.	.	8c-	.	.
V7b/IV	4BB-	4BB-	4d-	4f-	4g-
=!|:	=!|:	=!|:	=!|:	=!|:	=!|:
*>B	*>B	*>B	*>B	*>B	*>B
IV	4EE-	4C-	8c-	4e-	4g-
.	.	.	8B-	.	.
Vb/V	4CC	4C	4A-	4e-	4a-
=2	=2	=2	=2	=2	=2
v	4FF	4D-	4A-	8e-	4f-
.	.	.	.	4d-	.
V7/V	4CC	4AA-	4G-	.	4e-
.	.	.	.	8c	.
V;	4FF;	4DD-;	4F;	4d-;	4d-;
Vb	4FF	4FF	4A-	4d-	4a-
=3	=3	=3	=3	=3	=3
I	4BB-	4GG-	8G-	4d-	4b-
.	.	.	8F	.	.
V/V	4CC	4AA-	4E-	4c	4a-
IVb/V	4BB-	4BB-	4D-	4d-	4g-
Vb/V	4CC	4C	4A-	[4A-	8f
.	.	.	.	.	8e-
=4	=4	=4	=4	=4	=4
I/V	4FF	4D-	4A-	8A-]	4f
.	.	.	.	4d-	.
V7/V	4CC	4AA-	4G-	.	4e-
.	.	.	.	8c	.
I/V;	4FF;	4DD-;	4F;	4A-;	4d-;
*>B1	*>B1	*>B1	*>B1	*>B1	*>B1
IVb/V	4BB-	4BB-	4G-	4d-	4g-
=1	=1	=1	=1	=1	=1
IV	4EE-	4C-	8G-	4e-	4g-
.	.	.	8A-	.	.
I	4BB-	4GG-	4B-	4d-	4g-
=:|!	=:|!	=:|!	=:|!	=:|!	=:|!
*>B2	*>B2	*>B2	*>B2	*>B2	*>B2
IVb/V	8BB-	4BB-	8B-	8g-	4dd-
iii7	8DD	.	8A-	8f	.
=5	=5	=5	=5	=5	=5
IVb	4EE-	4E-	8G-	4e-	4cc-
.	.	.	8A-	.	.
I	4BB-	4G-	8B-	8d-	4b-
.	.	.	8c-	8e-	.
V7d	4FF	4C-	4d-	4f	4a-
Vb/IV	4BB-	4BB-	4d-	8g-	4g-
.	.	.	.	8f-	.
=6	=6	=6	=6	=6	=6
IV	4EE-	4C-	2G-	4e-	8g-
.	.	.	.	.	8a-
I	4BB-	4GG-	.	4d-	4b-
V;	4FF;	4D-;	4F;	4d-;	4a-;
viiob/ii	4BB	4BB-	4G	4d-	4b-
!!linebreak: 2
=7	=7	=7	=7	=7	=7
ii	4CC	4AA-	4.A-	4c-	4cc-
viio7b/IV	8DD	8D-	.	8f-	4b-
V/ii	8GG	8E-	8G	[8e-	.
vb	4FF	4F-	4A-	8e-]	4a-
.	.	.	.	8d-	.
V/ii	4GG	4E-	4B-	4e-	4g
=8	=8	=8	=8	=8	=8
ii;	2.CC;	2.AA-;	2.c-;	2.e-;	2.a-;
V7d	4FF	4C-	4F	4A-	4d-
=9	=9	=9	=9	=9	=9
Ib	4BB-	4BB-	4G-	4d-	4g-
ii	4CC	4AA-	4C-	8e-	4a-
.	.	.	.	8f	.
I	4BB-	4GG-	8D-	4g-	4b-
.	.	.	8d-	.	.
-viiob/iii	4CC	4AA-	[4c-	8f	4cc-
.	.	.	.	8e-	.
=10	=10	=10	=10	=10	=10
iii	4DD	4BB-	8c-]	4d-	4dd-
.	.	.	8B-	.	.
iib	8CC	4C-	8A-	4e-	8cc-
IV7	8EE-	.	8G-	.	8b-
V;	4FF;	4D-;	4d-;	4f;	4a-;
IVb	4EE-	4E-	4G-	4g-	4cc-
=11	=11	=11	=11	=11	=11
V7c/IV	4BB-	4D-	[4G-	4f-	4b-
iib	4CC	2C-	8G-]	4e-	4a-
.	.	.	8A-	.	.
V7d	4FF	.	4F	4d-	4dd-
Ib	8BB-	8BB-	4G-	8d-	8g-
ii7b	8CC	8C-	.	8e-	8a-
=12	=12	=12	=12	=12	=12
Ic	4BB-	4D-	4G-	8d-	4b-
.	.	.	.	[8c-	.
V7	4FF	4DD-	4F	8c-]	4a-
.	.	.	.	8B-	.
I;	4BB-;	4GG-;	4D-;	4B-;	4g-;
==	==	==	==	==	==
*-	*-	*-	*-	*-	*-
!!!ONB: m.10, b.4 changed from Ib to IVb
!!chor2scor: -l 2 -s 0.6 -o %b.pmx
!!!YEC: Copyright 1994, David Huron
!!!YEC: Changes/Additions 2001 by Craig Stuart Sapp
!!!YEN: United States of America
!!!SMA: 371 Bach Chorales, edited by Ludwig Erk, C.F. Peters
!!!PDT: 1850, 1865
!!!ONB: Harmony and Root analysis done manually
